X: 31203
T: Paddy Fahey's
R: jig
M: 6/8
K: Gmajor
|:GBd g2 a|gfd cBc|dcA =f3|agf dcA|
GBd g2 a|gfd cBc|dgf dcA|AGF G2:|
|:g3 bag|fd^c d2 e|=fef agf|ege cAB|
Bdg bag|fd^c dBc|dgf dcA|AGF G2:|

